v3/ui/src/layouts/Default/logomark.svg

<svg width="43" height="30" viewBox="0 0 43 30" fill="none" xmlns="http://www.w3.org/2000/svg">
<g clip-path="url(#clip0)">
<path d="M10.2461 6.96511C9.94961 6.62639 9.58456 6.45663 9.15016 6.45663H0.266216C0.187307 6.45663 0.122746 6.43169 0.0741259 6.3818C0.0247086 6.33273 0 6.27721 0 6.21767V0.238956C0 0.179418 0.0247086 0.124707 0.0741259 0.0748245C0.122746 0.0249415 0.187307 0 0.266216 0H9.6539C12.0227 0 14.0664 0.967086 15.784 2.89965L18.0644 5.67942L13.6224 11.0901L10.2461 6.96511ZM26.6526 2.86988C28.3703 0.956627 30.4235 0 32.8123 0H42.1705C42.2494 0 42.3083 0.0201141 42.3482 0.0595378C42.3873 0.099766 42.4072 0.159304 42.4072 0.238956V6.21767C42.4072 6.27721 42.3873 6.33273 42.3482 6.3818C42.3083 6.43169 42.2494 6.45663 42.1705 6.45663H33.2865C32.8521 6.45663 32.4871 6.62639 32.1906 6.96511L25.646 14.9166L32.2201 22.9277C32.5166 23.2471 32.8712 23.4064 33.2865 23.4064H42.1705C42.2494 23.4064 42.3083 23.4313 42.3482 23.4812C42.3873 23.5311 42.4072 23.5963 42.4072 23.6751V29.6538C42.4072 29.7134 42.3873 29.7689 42.3482 29.818C42.3083 29.8678 42.2494 29.8928 42.1705 29.8928H32.8123C30.4235 29.8928 28.3799 28.9265 26.6821 26.9931L21.2335 20.3571L15.784 26.9931C14.0664 28.9265 12.0132 29.8928 9.62441 29.8928H0.266216C0.187307 29.8928 0.127528 29.8678 0.0884728 29.818C0.0486202 29.7681 0.0294909 29.7037 0.0294909 29.6232V23.6445C0.0294909 23.585 0.0486202 23.5303 0.0884728 23.4804C0.127528 23.4305 0.187307 23.4056 0.266216 23.4056H9.15016C9.56463 23.4056 9.92968 23.2366 10.2461 22.8971L16.6719 15.0655L26.6526 2.86988Z" fill="#00DCFF"/>
<path d="M10.2461 6.96511C9.94961 6.62639 9.58456 6.45663 9.15016 6.45663H0.266216C0.187307 6.45663 0.122746 6.43169 0.0741259 6.3818C0.0247086 6.33273 0 6.27721 0 6.21767V0.238956C0 0.179418 0.0247086 0.124707 0.0741259 0.0748245C0.122746 0.0249415 0.187307 0 0.266216 0H9.6539C12.0227 0 14.0664 0.967086 15.784 2.89965L18.0644 5.67942L13.6224 11.0901L10.2461 6.96511ZM26.6526 2.86988C28.3703 0.956627 30.4235 0 32.8123 0H42.1705C42.2494 0 42.3083 0.0201141 42.3482 0.0595378C42.3873 0.099766 42.4072 0.159304 42.4072 0.238956V6.21767C42.4072 6.27721 42.3873 6.33273 42.3482 6.3818C42.3083 6.43169 42.2494 6.45663 42.1705 6.45663H33.2865C32.8521 6.45663 32.4871 6.62639 32.1906 6.96511L25.646 14.9166L32.2201 22.9277C32.5166 23.2471 32.8712 23.4064 33.2865 23.4064H42.1705C42.2494 23.4064 42.3083 23.4313 42.3482 23.4812C42.3873 23.5311 42.4072 23.5963 42.4072 23.6751V29.6538C42.4072 29.7134 42.3873 29.7689 42.3482 29.818C42.3083 29.8678 42.2494 29.8928 42.1705 29.8928H32.8123C30.4235 29.8928 28.3799 28.9265 26.6821 26.9931L21.2335 20.3571L15.784 26.9931C14.0664 28.9265 12.0132 29.8928 9.62441 29.8928H0.266216C0.187307 29.8928 0.127528 29.8678 0.0884728 29.818C0.0486202 29.7681 0.0294909 29.7037 0.0294909 29.6232V23.6445C0.0294909 23.585 0.0486202 23.5303 0.0884728 23.4804C0.127528 23.4305 0.187307 23.4056 0.266216 23.4056H9.15016C9.56463 23.4056 9.92968 23.2366 10.2461 22.8971L16.6719 15.0655L26.6526 2.86988Z" fill="#00D1FF"/>
</g>
<defs>
<clipPath id="clip0">
<rect width="42.4072" height="29.8936" fill="white"/>
</clipPath>
</defs>
</svg>

<svg width="43" height="30" fill="none" xmlns="http://www.w3.org/2000/svg">
  <g clip-path="url(#a)">
    <path fill="#00DCFF" d="M10.246 6.965a1.4 1.4 0 0 0-1.096-.508H.266a.257.257 0 0 1-.192-.075A.228.228 0 0 1 0 6.218V.239A.23.23 0 0 1 .074.075.257.257 0 0 1 .266 0h9.388c2.369 0 4.412.967 6.13 2.9l2.28 2.78-4.442 5.41-3.376-4.125ZM26.653 2.87C28.37.957 30.423 0 32.813 0h9.357c.08 0 .138.02.178.06.04.04.06.1.06.179v5.979c0 .06-.02.115-.06.164-.04.05-.099.075-.178.075h-8.884a1.4 1.4 0 0 0-1.095.508l-6.545 7.952 6.574 8.01c.297.32.651.48 1.066.48h8.884c.08 0 .138.024.178.074.04.05.06.115.06.194v5.979c0 .06-.02.115-.06.164-.04.05-.099.075-.178.075h-9.358c-2.388 0-4.432-.966-6.13-2.9l-5.448-6.636-5.45 6.636c-1.718 1.934-3.77 2.9-6.16 2.9H.266c-.079 0-.138-.025-.178-.075a.301.301 0 0 1-.059-.195v-5.979c0-.059.02-.114.06-.164.039-.05.098-.074.177-.074H9.15c.415 0 .78-.17 1.096-.509l6.426-7.831 9.98-12.196Z"/>
    <path fill="#00D1FF" d="M10.246 6.965a1.4 1.4 0 0 0-1.096-.508H.266a.257.257 0 0 1-.192-.075A.228.228 0 0 1 0 6.218V.239A.23.23 0 0 1 .074.075.257.257 0 0 1 .266 0h9.388c2.369 0 4.412.967 6.13 2.9l2.28 2.78-4.442 5.41-3.376-4.125ZM26.653 2.87C28.37.957 30.423 0 32.813 0h9.357c.08 0 .138.02.178.06.04.04.06.1.06.179v5.979c0 .06-.02.115-.06.164-.04.05-.099.075-.178.075h-8.884a1.4 1.4 0 0 0-1.095.508l-6.545 7.952 6.574 8.01c.297.32.651.48 1.066.48h8.884c.08 0 .138.024.178.074.04.05.06.115.06.194v5.979c0 .06-.02.115-.06.164-.04.05-.099.075-.178.075h-9.358c-2.388 0-4.432-.966-6.13-2.9l-5.448-6.636-5.45 6.636c-1.718 1.934-3.77 2.9-6.16 2.9H.266c-.079 0-.138-.025-.178-.075a.301.301 0 0 1-.059-.195v-5.979c0-.059.02-.114.06-.164.039-.05.098-.074.177-.074H9.15c.415 0 .78-.17 1.096-.509l6.426-7.831 9.98-12.196Z"/>
  </g>
  <defs>
    <clipPath id="a">
      <path fill="#fff" d="M0 0h42.407v29.894H0z"/>
    </clipPath>
  </defs>
</svg>
